X:1
T: Auld Wife ayond the Fire
C:
R:Strathspey
Q:128
K:G
M:4/4
L:1/16
|:d2|B4 A3G F2G2 A2c2|B4 A3G G2g2 g3d|c2B2 A2G2 F3G A2c2|Bd3 A3B G4 G2d2|
B4 A3G F2G2 A2c2|B4 A3G G2g2 g3d|c2B2 A2G2 F3G A2c2|Bd3 A3B G4 G2c2|
B3c d2e2 c3d c2A2|B2c2 d2e2 d2ef g2d2|B3c d2e2 c3d c2A2|Bd3 A3B G4 G3c|
B3c d2e2 c3d c2A2|B3c d2ef gfga g3d|B3c d2e2 c3d c2A2|Bd3 A3B G4G2:|
